!!!OTL: Hoer an, mein liebes Kind, was ich muss leiden, was mich von Herzen freut, das muss ich meiden
!!!ARE: Europa, Mitteleuropa, Deutschland, Untermainfranken, Spessart
!!!SCT: D0171
!!!YEM: Copyright 1995, estate of Helmut Schaffrath.
**kern
*ICvox
*Ivox
*M3/4
*k[f#c#]
*D:
{8d
8f#
=1
4a
4dd
8a
8a
=2
2f#
4r}
=3
{4b
4.a
8e
=4
4g
4f#}
{8d
8f#
=5
4a
4dd
8a
8a
=6
2f#
4r}
=7
{4b
4.a
8e
=8
4g
4f#}
{8e
8e
=9
4e
4.e
8e
=10
8e
8f#
8g
8b
4a}
=11
{4a
4b
8dd
8b
=12
8b
8a
4a}
{8d
8f#
=13
4a
4dd
8a
8a
=14
8a
8g
4f#
4r}
=15
{4b
4.a
8e
=16
4g
4f#}
{8e
8e
=17
4e
4.e
8e
=18
8e
8f#
8g
8b
4a}
=19
{4a
4b
8dd
8b
=20
8b
8a
4a}
{8d
8f#
=21
4a
4dd
8a
8a
=22
8a
8g
4f#
4r}
=23
{4b
4.a
8e
=24
4g
4f#}
==
!!!AGN: Liebes - Lied
!! Rhythmische Korrekturen (Pausen weggelassen) ; Inzipit = Variante
!!!ONB: ESAC (Essen Associative Code) Database: DVA
!!!AMT: simple triple
!!!AIN: vox
!!!EED: Helmut Schaffrath
!!!EEV: 1.0
*-
